app/dist/common/images/ningxia-baofeng-energy-co-ltd.svg

<svg height="18" viewBox="0 0 18 18" width="18" xmlns="http://www.w3.org/2000/svg"><path d="m0 0h18v18h-18z" fill="#f0f3fa"/><path d="m5.7 9.25h7.2l-.92 1.75h-6.28zm7.6 0h1.7l-.4.75h-1.7zm-.65 1h1.75l-.35.75h-1.75z" fill="#373435"/><path d="m3 9.25h8.1l-.93 1.75h-7.17z" fill="#f58634"/><path d="m3 7h7.5l-.95 2h-6.55z" fill="#ed3237"/><path d="m6.6 7h7.51l-.95 2h-6.56z" fill="#373435"/></svg>

<!-- by TradingView --><svg width="18" height="18" viewBox="0 0 18 18" xmlns="http://www.w3.org/2000/svg"><path fill="#F0F3FA" d="M0 0h18v18H0z"/><path d="M5.7 9.25h7.2L11.98 11H5.7V9.25ZM13.3 9.25H15l-.4.75h-1.7l.4-.75ZM12.65 10.25h1.75l-.35.75H12.3l.35-.75Z" fill="#373435"/><path d="M3 9.25h8.1L10.17 11H3V9.25Z" fill="#F58634"/><path d="M3 7h7.5l-.95 2H3V7Z" fill="#ED3237"/><path d="M6.6 7h7.51l-.95 2H6.6V7Z" fill="#373435"/></svg>
